svgs/sharp-light/stop.svg

<svg xmlns="http://www.w3.org/2000/svg" viewBox="0 0 384 512"><!--! Font Awesome Pro 6.6.0 by @fontawesome - https://fontawesome.com License - https://fontawesome.com/license (Commercial License) Copyright 2024 Fonticons, Inc. --><path d="M352 96l0 320L32 416 32 96l320 0zM32 64L0 64 0 96 0 416l0 32 32 0 320 0 32 0 0-32 0-320 0-32-32 0L32 64z"/></svg>

<svg xmlns="http://www.w3.org/2000/svg" viewBox="0 0 384 512"><!--! Font Awesome Pro 6.4.2 by @fontawesome - https://fontawesome.com License - https://fontawesome.com/license (Commercial License) Copyright 2023 Fonticons, Inc. --><path d="M352 96V416H32V96H352zM32 64H0V96 416v32H32 352h32V416 96 64H352 32z"/></svg>
